X: 20061
Q: "Slow"
M: C
L: 1/8
K: D
~d>e |\
{d}f2 (f/e/)(d/c/) {e}d3 A | (cB)(AG) (A/G/F) zA |\
=d>e |\
{d}f2 (f/e/)(d/c/) {d}d3 A | (cB)(AG) (A/G/F) zA |\
f2 |\
a2(gf) (fe)(e>g) | f>dBg (f3/g//f//) ef |\
(ag) (gf) (f/e/)(g/f/) ed | (d3/e//f//) e2 z2
~d>e |\
{d}f2 (f/e/)(d/c/) {e}d3 A | (cB)(AG) (A/G/F) zA |\


